!!!COM: Giovanni Maria Nanino
!!!OPR: Regole di contrappunto di Gio. M. Nanino e del suo fratello minore.
!!!OTL: [Didactic example]
!!!YOR: MS ca. 1580-ca.1610.
!!!YOR: Bologna, Civico Museo Bibliografico Musicale.
!!!ONB: Reprinted (without acknowledgement) by Rocco Rodio "Regole di musica"
!!!ONB: [3rd edition].  Naples: Gio. Giocomo Carlino & Costantino Vitale, 1619.
!!!ONB: Encoded from Rodio, p. 21.
!!!ONB: Canon at the octave below after a minim with the cantus firmus below.
**kern	**kern	**kern
*k[]	*k[]	*k[]
*M4/4	*M4/4	*M4/4
*CF	*conseq	*guida
=1	=1	=1
1A	2r	4a
.	.	4b
.	4A	4cc
.	4B	4dd
=2	=2	=2
1E	4c	2ee
.	4d	.
.	2e	2b
=3	=3	=3
1D	2B	2dd
.	2d	2a
=4	=4	=4
1F	2A	4a
.	.	4b
.	4A	4cc
.	4B	4dd
=5	=5	=5
1E	4c	2ee
.	4d	.
.	2e	2b
=6	=6	=6
1D	2B	2dd
.	2d	2a
=7	=7	=7
1F	2A	2a
.	2A	2dd
=8	=8	=8
1G	2d	2b
.	2B	2ee
=9	=9	=9
1A	2e	2cc
.	2c	2a
=10	=10	=10
1c	2A	2ee
.	2e	2gg
=11	=11	=11
1B	2g	2dd
.	2d	2ff
=12	=12	=12
1A	2f	2cc
.	2c	2ee
=13	=13	=13
1c	2e	2ee
.	2e	2aa
=14	=14	=14
1d	2a	2ff
.	2f	2dd
=15	=15	=15
1G	2d	4gg
.	.	4ff
.	4g	4ee
.	4f	4dd
=16	=16	=16
1A	4e	2cc
.	4d	.
.	2c	2ee
=17	=17	=17
1G	2e	2gg
.	2g	4dd
.	.	4ee
=18	=18	=18
1d	4d	4ff
.	4e	4gg
.	4f	2aa
.	4g	.
=19	=19	=19
1c	2a	2ee
.	2e	2aa
=20	=20	=20
1d	2a	2ff
.	2f	2dd
=21	=21	=21
1G	2d	4b
.	.	4cc
.	4B	4dd
.	4c	4ee
=22	=22	=22
1F	4d	2ff
.	4e	.
.	2f	2dd
=23	=23	=23
1B-	2d	4dd
.	.	4ee
.	4d	4ff
.	4e	4gg
=24	=24	=24
1A	4f	2aa
.	4g	.
.	2a	2ff
=25	=25	=25
1D	2f	4dd
.	.	4cc
.	4d	4b
.	4c	4a
=26	=26	=26
1E	4B	2g
.	4A	.
.	2G	2gg
=27	=27	=27
1G	2g	4gg
.	.	4ff
.	4g	4ee
.	4f	4dd
=28	=28	=28
1A	4e	2cc
.	4d	.
.	2c	2ee
=29	=29	=29
1c	2e	2ee
.	2e	2gg
=30	=30	=30
1B	2g	4dd
.	.	4ee
.	4d	4ff
.	4e	4gg
=31	=31	=31
1A	4f	2aa
.	4g	.
.	2a	2ee
=32	=32	=32
1G	2e	2gg
.	2g	2dd
=33	=33	=33
1F	2d	4a
.	.	4b
.	4A	4cc
.	4B	4dd
=34	=34	=34
1E	4c	2ee
.	4d	.
.	2e	2b
=35	=35	=35
1D	2B	2dd
.	2d	2b
=36	=36	=36
1E	2B	4g
.	.	4a
.	4G	4b
.	4A	4cc
=37	=37	=37
[1D	4B	2dd
.	4c	.
.	2d	2a
=38	=38	=38
1D]	1A	1dd
==	==	==
*-	*-	*-
!!!CDT: 1545///-1607/3/11
!!!OCY: Italia
!!!ODT: 1586
!!!AFR: cantus firmus canon
!!!AST: polyphony
!!!AMT: simple quadruple
!!!AIN: vox
!!!YEP: David Huron and Denis Collins
!!!YEN: Canada
!!!EEV: 1.0
!!!RDT: 1995 July 23
!!!YED: 1995 August 31
